cloud-tags.svg

<svg fill="currentColor" viewBox="0 0 24 24"><path d="M21.86 12.5A4.31 4.31 0 0 0 19 11c0-1.95-.68-3.6-2.04-4.96S13.95 4 12 4c-1.58 0-3 .47-4.25 1.43s-2.08 2.19-2.5 3.72c-1.25.28-2.29.93-3.08 1.95S1 13.28 1 14.58c0 1.51.54 2.8 1.61 3.85C3.69 19.5 5 20 6.5 20h12c1.25 0 2.31-.44 3.19-1.31.87-.88 1.31-1.94 1.31-3.19q0-1.725-1.14-3M10.5 16.18 9.09 17.6 4.5 13l4.59-4.6 1.41 1.42L7.32 13zm4.41 1.42-1.41-1.42L16.68 13 13.5 9.82l1.41-1.42L19.5 13z"/></svg>

<svg  viewBox="0 0 24 24" fill="currentColor"><path  d="M21.86 12.5C21.1 11.63 20.15 11.13 19 11C19 9.05 18.32 7.4 16.96 6.04C15.6 4.68 13.95 4 12 4C10.42 4 9 4.47 7.75 5.43S5.67 7.62 5.25 9.15C4 9.43 2.96 10.08 2.17 11.1S1 13.28 1 14.58C1 16.09 1.54 17.38 2.61 18.43C3.69 19.5 5 20 6.5 20H18.5C19.75 20 20.81 19.56 21.69 18.69C22.56 17.81 23 16.75 23 15.5C23 14.35 22.62 13.35 21.86 12.5M10.5 16.18L9.09 17.6L4.5 13L9.09 8.4L10.5 9.82L7.32 13L10.5 16.18M14.91 17.6L13.5 16.18L16.68 13L13.5 9.82L14.91 8.4L19.5 13L14.91 17.6Z"/></svg>
